icons/Nix-Dark.svg

<svg width="256" height="256" viewBox="0 0 256 256" fill="none" xmlns="http://www.w3.org/2000/svg">
<rect width="256" height="256" rx="60" fill="#242938"/>
<path fill-rule="evenodd" clip-rule="evenodd" d="M89.0317 129.893L137.755 214.294L115.364 214.504L102.356 191.828L89.2549 214.383L78.1294 214.378L72.4312 204.534L91.0959 172.44L77.8463 149.383L89.0317 129.893Z" fill="url(#paint0_linear_983_425)"/>
<path fill-rule="evenodd" clip-rule="evenodd" d="M106.618 95.1265L57.8861 179.523L46.5085 160.236L59.642 137.633L33.559 137.565L28 127.928L33.6765 118.071L70.8029 118.188L84.1459 95.1849L106.618 95.1265Z" fill="url(#paint1_linear_983_425)"/>
<path fill-rule="evenodd" clip-rule="evenodd" d="M110.356 162.592L207.812 162.597L196.798 182.093L170.656 182.021L183.639 204.644L178.072 214.276L166.697 214.289L148.236 182.078L121.643 182.024L110.356 162.592Z" fill="url(#paint2_linear_983_425)"/>
<path fill-rule="evenodd" clip-rule="evenodd" d="M167.079 125.611L118.355 41.21L140.747 41L153.755 63.6755L166.856 41.1212L177.981 41.1256L183.68 50.9701L165.015 83.0639L178.264 106.121L167.079 125.611Z" fill="url(#paint3_linear_983_425)"/>
<path fill-rule="evenodd" clip-rule="evenodd" d="M89.0317 129.892L137.755 214.293L115.364 214.503L102.356 191.828L89.2549 214.382L78.1294 214.378L72.4312 204.533L91.0959 172.439L77.8463 149.383L89.0317 129.892Z" fill="url(#paint4_linear_983_425)"/>
<path fill-rule="evenodd" clip-rule="evenodd" d="M145.553 92.7181L48.0977 92.7133L59.1115 73.2167L85.253 73.2891L72.2709 50.6663L77.8374 41.0335L89.2121 41.021L107.674 73.2321L134.266 73.286L145.553 92.7181Z" fill="url(#paint5_linear_983_425)"/>
<path fill-rule="evenodd" clip-rule="evenodd" d="M149.382 160.738L198.114 76.3418L209.491 95.6284L196.358 118.231L222.441 118.3L228 127.937L222.323 137.794L185.197 137.677L171.854 160.68L149.382 160.738Z" fill="url(#paint6_linear_983_425)"/>
<defs>
<linearGradient id="paint0_linear_983_425" x1="73.7596" y1="132.543" x2="109.442" y2="194.258" gradientUnits="userSpaceOnUse">
<stop stop-color="#699AD7"/>
<stop offset="0.243452" stop-color="#7EB1DD"/>
<stop offset="1" stop-color="#7EBAE4"/>
</linearGradient>
<linearGradient id="paint1_linear_983_425" x1="96.6863" y1="83.2258" x2="61.0814" y2="144.985" gradientUnits="userSpaceOnUse">
<stop stop-color="#699AD7"/>
<stop offset="0.243452" stop-color="#7EB1DD"/>
<stop offset="1" stop-color="#7EBAE4"/>
</linearGradient>
<linearGradient id="paint2_linear_983_425" x1="105.016" y1="177.143" x2="176.304" y2="177.099" gradientUnits="userSpaceOnUse">
<stop stop-color="#699AD7"/>
<stop offset="0.243452" stop-color="#7EB1DD"/>
<stop offset="1" stop-color="#7EBAE4"/>
</linearGradient>
<linearGradient id="paint3_linear_983_425" x1="182.351" y1="122.96" x2="146.669" y2="61.2461" gradientUnits="userSpaceOnUse">
<stop stop-color="#699AD7"/>
<stop offset="0.243452" stop-color="#7EB1DD"/>
<stop offset="1" stop-color="#7EBAE4"/>
</linearGradient>
<linearGradient id="paint4_linear_983_425" x1="77.4476" y1="130.444" x2="112.497" y2="192.398" gradientUnits="userSpaceOnUse">
<stop stop-color="#415E9A"/>
<stop offset="0.231686" stop-color="#4A6BAF"/>
<stop offset="1" stop-color="#5277C3"/>
</linearGradient>
<linearGradient id="paint5_linear_983_425" x1="150.867" y1="82.4101" x2="79.6889" y2="81.7867" gradientUnits="userSpaceOnUse">
<stop stop-color="#415E9A"/>
<stop offset="0.231686" stop-color="#4A6BAF"/>
<stop offset="1" stop-color="#5277C3"/>
</linearGradient>
<linearGradient id="paint6_linear_983_425" x1="155.652" y1="170.494" x2="191.781" y2="109.164" gradientUnits="userSpaceOnUse">
<stop stop-color="#415E9A"/>
<stop offset="0.231686" stop-color="#4A6BAF"/>
<stop offset="1" stop-color="#5277C3"/>
</linearGradient>
</defs>
</svg>

<svg xmlns="http://www.w3.org/2000/svg" width="256" height="256" fill="none" viewBox="0 0 256 256"><rect width="256" height="256" fill="#242938" rx="60"/><path fill="url(#a)" fill-rule="evenodd" d="m89.03 129.9 48.72 84.4-22.39.2-13-22.67-13.1 22.55H78.12l-5.7-9.85 18.67-32.09-13.25-23.06z" clip-rule="evenodd"/><path fill="url(#b)" fill-rule="evenodd" d="m106.62 95.13-48.73 84.4-11.38-19.3 13.13-22.6-26.08-.06-5.56-9.64 5.68-9.86 37.12.12 13.35-23z" clip-rule="evenodd"/><path fill="url(#c)" fill-rule="evenodd" d="M110.36 162.6h97.45l-11.01 19.5-26.14-.08 12.98 22.62-5.57 9.64H166.7l-18.46-32.2-26.6-.06z" clip-rule="evenodd"/><path fill="url(#d)" fill-rule="evenodd" d="m167.08 125.61-48.73-84.4 22.4-.21 13 22.68 13.1-22.56h11.13l5.7 9.85-18.67 32.1 13.25 23.05z" clip-rule="evenodd"/><path fill="url(#e)" fill-rule="evenodd" d="m89.03 129.9 48.72 84.4-22.39.2-13-22.67-13.1 22.55H78.12l-5.7-9.85 18.67-32.1-13.25-23.05z" clip-rule="evenodd"/><path fill="url(#f)" fill-rule="evenodd" d="M145.55 92.72H48.1l11.01-19.5 26.14.07-12.98-22.62 5.57-9.64H89.2l18.46 32.2 26.6.06z" clip-rule="evenodd"/><path fill="url(#g)" fill-rule="evenodd" d="m149.38 160.74 48.73-84.4 11.38 19.29-13.13 22.6 26.08.07 5.56 9.64-5.68 9.85-37.12-.11-13.35 23z" clip-rule="evenodd"/><defs><linearGradient id="a" x1="73.76" x2="109.44" y1="132.54" y2="194.26" gradientUnits="userSpaceOnUse"><stop stop-color="#699AD7"/><stop offset=".24" stop-color="#7EB1DD"/><stop offset="1" stop-color="#7EBAE4"/></linearGradient><linearGradient id="b" x1="96.69" x2="61.08" y1="83.23" y2="144.99" gradientUnits="userSpaceOnUse"><stop stop-color="#699AD7"/><stop offset=".24" stop-color="#7EB1DD"/><stop offset="1" stop-color="#7EBAE4"/></linearGradient><linearGradient id="c" x1="105.02" x2="176.3" y1="177.14" y2="177.1" gradientUnits="userSpaceOnUse"><stop stop-color="#699AD7"/><stop offset=".24" stop-color="#7EB1DD"/><stop offset="1" stop-color="#7EBAE4"/></linearGradient><linearGradient id="d" x1="182.35" x2="146.67" y1="122.96" y2="61.25" gradientUnits="userSpaceOnUse"><stop stop-color="#699AD7"/><stop offset=".24" stop-color="#7EB1DD"/><stop offset="1" stop-color="#7EBAE4"/></linearGradient><linearGradient id="e" x1="77.45" x2="112.5" y1="130.44" y2="192.4" gradientUnits="userSpaceOnUse"><stop stop-color="#415E9A"/><stop offset=".23" stop-color="#4A6BAF"/><stop offset="1" stop-color="#5277C3"/></linearGradient><linearGradient id="f" x1="150.87" x2="79.69" y1="82.41" y2="81.79" gradientUnits="userSpaceOnUse"><stop stop-color="#415E9A"/><stop offset=".23" stop-color="#4A6BAF"/><stop offset="1" stop-color="#5277C3"/></linearGradient><linearGradient id="g" x1="155.65" x2="191.78" y1="170.49" y2="109.16" gradientUnits="userSpaceOnUse"><stop stop-color="#415E9A"/><stop offset=".23" stop-color="#4A6BAF"/><stop offset="1" stop-color="#5277C3"/></linearGradient></defs></svg>
